assets/svg/1f1e9-1f1ff.svg

<svg xmlns="http://www.w3.org/2000/svg" width="64" height="64" viewBox="0 0 64 64"><path fill="#F9F9F9" d="M62 32C62 15.432 48.568 2 32 2v60c16.568 0 30-13.432 30-30z"/><path fill="#699635" d="M2 32c0 16.568 13.432 30 30 30V2C15.432 2 2 15.432 2 32z"/><path fill="#ED4C5C" d="M40.652 39l-.011-5.356L46 32l-5.359-1.645.011-5.355-3.3 4.34L32 27.674 35.319 32 32 36.326l5.352-1.667z"/><path fill="#ED4C5C" d="M37.25 44c-6.553 0-11.865-5.373-11.865-12s5.313-12 11.865-12c2.509 0 4.834.789 6.75 2.133C41.281 18.987 37.286 17 32.83 17 24.639 17 18 23.715 18 32c0 8.283 6.639 15 14.83 15 4.456 0 8.451-1.988 11.17-5.135A11.697 11.697 0 0 1 37.25 44z"/></svg>

<svg xmlns="http://www.w3.org/2000/svg" viewBox="0 0 64 64" enable-background="new 0 0 64 64"><path fill="#f9f9f9" d="m62 32c0-16.568-13.432-30-30-30v60c16.568 0 30-13.432 30-30"/><path fill="#699635" d="M2,32c0,16.568,13.432,30,30,30V2C15.432,2,2,15.432,2,32z"/><g fill="#ed4c5c"><path d="M40.652 39 40.641 33.644 46 32 40.641 30.355 40.652 25 37.35 29.34 32 27.674 35.32 32 32 36.33 37.35 34.659z"/><path d="m37.25 44c-6.553 0-11.865-5.373-11.865-12s5.313-12 11.865-12c2.509 0 4.834.789 6.75 2.133-2.719-3.146-6.714-5.133-11.17-5.133-8.191 0-14.83 6.715-14.83 15 0 8.283 6.639 15 14.83 15 4.456 0 8.451-1.988 11.17-5.135-1.916 1.346-4.241 2.135-6.75 2.135"/></g></svg>
